!!!COM:	Regis, Johannes
!!!CDT:	~1425///-~1496///
!!!OTL:	Ave Maria ... benedicta tu
!!!AGN:	Motet
!!!SCT:	Reg2001
!!!SCA:	Reg2001
!!!voices:	3
**kern	**text	**kern	**text	**kern	**text
*staff3	*staff3	*staff2	*staff2	*staff1	*staff1
*Ivox	*	*Ivox	*	*Ivox	*
*I"Contra	*	*I"Altus	*	*I"Discantus	*
*I'C	*	*I'A	*	*I'D	*
*clefF4	*	*clefG2	*	*clefG2	*
*k[]	*	*k[]	*	*k[]	*
*M2/1	*	*M2/1	*	*M2/1	*
*met(C|)	*	*met(C|)	*	*met(C|)	*
=1-	=1-	=1-	=1-	=1-	=1-
1.F	A-	0r	.	0f	A-
4E\	.	.	.	.	.
4D\	.	.	.	.	.
=2	=2	=2	=2	=2	=2
2C/	.	0r	.	0e	.
1D	.	.	.	.	.
2C#i/	.	.	.	.	.
=3	=3	=3	=3	=3	=3
0D	-ve	0f	A-	1f	.
.	.	.	.	[1a	.
=4	=4	=4	=4	=4	=4
2.A\	Ma-	0e	.	1a]	.
4B\	.	.	.	.	.
1c	.	.	.	1g	-ve
=5	=5	=5	=5	=5	=5
1.d	-ri-	1f	.	2r	.
.	.	.	.	1f	Ma-
.	.	[1a	.	.	.
4c\	.	.	.	4e/	.
4B\	.	.	.	4d/	.
=6	=6	=6	=6	=6	=6
2A\	.	1a]	.	2c/	.
4G\	.	.	.	1d	.
4F\	.	.	.	.	.
1E	.	1g	-ve	.	.
.	.	.	.	2c#i/	.
=7	=7	=7	=7	=7	=7
1D	.	2r	.	0d	-ri-
.	.	1f	Ma-	.	.
[1F	.	.	.	.	.
.	.	4e/	.	.	.
.	.	4d/	.	.	.
=8	=8	=8	=8	=8	=8
2F\]	.	2c/	.	0a	.
2D\	.	1d	.	.	.
1A	.	.	.	.	.
.	.	2c#i/	.	.	.
=9	=9	=9	=9	=9	=9
0G	.	0d	-ri-	0b-i	.
=10	=10	=10	=10	=10	=10
0F	.	0a	.	2a/	.
.	.	.	.	1cc	.
.	.	.	.	4b-i\	.
.	.	.	.	4a/	.
=11	=11	=11	=11	=11	=11
0E	.	0b-i	.	2g/	.
.	.	.	.	1a	.
.	.	.	.	2g/	.
=12	=12	=12	=12	=12	=12
2.F\	.	2a/	.	1.a	.
.	.	1cc	.	.	.
4E\	.	.	.	.	.
[1C	.	.	.	.	.
.	.	4b-i\	.	4g/	.
.	.	4a/	.	4f/	.
=13	=13	=13	=13	=13	=13
2C/]	.	2g/	.	2e/	.
2AA/	.	1a	.	2f/	.
1C	.	.	.	1e	.
.	.	2g/	.	.	.
=14	=14	=14	=14	=14	=14
2r	.	1.a	.	2r	.
2.F\	.	.	.	2.a/	.
4G\	.	.	.	4b-i\	.
4A\	.	4g/	.	[2cc\	.
4B-i\	.	4f/	.	.	.
=15	=15	=15	=15	=15	=15
2c\	.	2e/	.	2cc\]	.
2d\	.	2f/	.	4b-i\	.
.	.	.	.	4a/	.
1B-i	.	1d	.	1g	.
=16	=16	=16	=16	=16	=16
[0A;	-a,	2e/	.	[0a;	-a,
.	.	2f/	.	.	.
.	.	[1e;	-a,	.	.
=17	=17	=17	=17	=17	=17
0A]	.	0e]	.	0a]	.
=18	=18	=18	=18	=18	=18
[0A	gra-	0r	.	0r	.
=19	=19	=19	=19	=19	=19
0A]	.	0r	.	0r	.
=20	=20	=20	=20	=20	=20
0G	.	0r	.	0r	.
=21	=21	=21	=21	=21	=21
1.F	.	[0a	gra-	0r	.
4E\	.	.	.	.	.
4D\	.	.	.	.	.
=22	=22	=22	=22	=22	=22
1C	.	0a]	.	0r	.
[1F	.	.	.	.	.
=23	=23	=23	=23	=23	=23
1F]	.	0g	.	0r	.
1E	.	.	.	.	.
=24	=24	=24	=24	=24	=24
[0F	.	1.f	.	[0a	gra-
.	.	4e/	.	.	.
.	.	4d/	.	.	.
=25	=25	=25	=25	=25	=25
0F]	.	1c	.	0a]	.
.	.	[1f	.	.	.
=26	=26	=26	=26	=26	=26
0c	.	1f]	.	0g	.
.	.	1e	.	.	.
=27	=27	=27	=27	=27	=27
1.d	.	1f	.	1.f	.
.	.	[1a	.	.	.
2c\	.	.	.	4e/	.
.	.	.	.	4d/	.
=28	=28	=28	=28	=28	=28
1A	-ti-	1a]	.	1c	.
1B-i	.	2g/	-ti-	[1f	.
.	.	2f/	.	.	.
=29	=29	=29	=29	=29	=29
0G	-a	0g	-a	1f]	.
.	.	.	.	1e	-ti-
=30	=30	=30	=30	=30	=30
1r	.	1a	ple-	1f	-a
[1F	ple-	[1cc	.	[1a	ple-
=31	=31	=31	=31	=31	=31
2F\]	.	1cc]	.	1a]	.
2G\	.	.	.	.	.
1A	.	2b-i\	.	2g/	.
.	.	2a/	.	2f/	.
=32	=32	=32	=32	=32	=32
0E	-na,	0b-i	.	0g	.
=33	=33	=33	=33	=33	=33
1r	.	1a	.	0a	-na,
[1A	Do-	[1f	.	.	.
=34	=34	=34	=34	=34	=34
1A]	.	1f]	.	1r	.
2G\	.	2e/	.	[1cc	Do-
2F\	.	2d/	.	.	.
=35	=35	=35	=35	=35	=35
1E	.	0c	-na,	2cc\]	.
.	.	.	.	2b\	.
1F	.	.	.	[1a	.
=36	=36	=36	=36	=36	=36
0D	.	1r	.	1a]	.
.	.	1f	Do-	2g/	-mi-
.	.	.	.	2f/	.
=37	=37	=37	=37	=37	=37
1C	.	[0g	.	0e	-nus
1c	.	.	.	.	.
=38	=38	=38	=38	=38	=38
2B-i\	.	0g]	.	1r	.
1G	.	.	.	.	.
.	.	.	.	1e	te-
4F\	-mi-	.	.	.	.
4E\	.	.	.	.	.
=39	=39	=39	=39	=39	=39
1D	-nus	1.a	.	1.f	.
2r	.	.	.	.	.
[2d\	te-	2g/	.	2e/	.
=40	=40	=40	=40	=40	=40
2d\]	.	2f/	.	2f/	.
4c\	.	2e/	-mi-	2g/	.
4B\	.	.	.	.	.
1A	.	[1f	-nus	[1a	.
=41	=41	=41	=41	=41	=41
1d	.	1f]	.	1a]	.
1B	.	1g	te-	[1g	.
=42	=42	=42	=42	=42	=42
0A	.	1a	.	2g/]	.
.	.	.	.	2f#i/	.
.	.	1cc	.	2f#i/	.
.	.	.	.	4e/	.
.	.	.	.	4f#i/	.
=43	=43	=43	=43	=43	=43
1G	.	1b	.	1g	-cum,
2D\	.	[1dd	.	1r	.
[2G\	.	.	.	.	.
=44	=44	=44	=44	=44	=44
1G]	.	2dd\]	.	2d/	Do-
.	.	2cc\	.	1g	.
1G	.	2b\	.	.	.
.	.	2a/	.	2f/	.
=45	=45	=45	=45	=45	=45
2c\	.	1g	.	2e/	.
2B\	.	.	.	2d/	.
2A\	.	[1cc	.	1c	.
2G\	.	.	.	.	.
=46	=46	=46	=46	=46	=46
1F	-cum,	2cc\]	.	1.f	.
.	.	2b\	.	.	.
1r	.	2a/	.	.	.
.	.	2g/	.	2e/	.
=47	=47	=47	=47	=47	=47
1B-	te-	1f	.	1d	-mi-
2A\	.	[1a	.	1c	-nus
2G\	.	.	.	.	.
=48	=48	=48	=48	=48	=48
2F\	.	2a/]	.	1A	te-
2E\	.	2g/	.	.	.
[1D	.	2f/	.	[1a	.
.	.	2e/	.	.	.
=49	=49	=49	=49	=49	=49
2D\]	.	1d	.	1a]	.
2C/	.	.	.	.	.
[1c	.	[1e	.	[1g	.
=50	=50	=50	=50	=50	=50
1c]	.	2e/]	.	1g]	.
.	.	2d/	.	.	.
1d	.	[1d	.	1f	.
=51	=51	=51	=51	=51	=51
0A	-cum:	1d]	.	0e	.
.	.	1c#i	.	.	.
=52	=52	=52	=52	=52	=52
1.D	be-	0d	-cum:	1d	-cum:
.	.	.	.	1r	.
2E\	-ne-	.	.	.	.
=53	=53	=53	=53	=53	=53
1F	-di-	0r	.	0d	be-
[1G	.	.	.	.	.
=54	=54	=54	=54	=54	=54
1G]	.	0r	.	1e	-ne-
1F	-cta	.	.	1f	-di-
=55	=55	=55	=55	=55	=55
1.G	tu	0d	be-	1d	.
.	.	.	.	[1g	.
2F\	.	.	.	.	.
=56	=56	=56	=56	=56	=56
1E	.	1e	-ne-	1g]	.
1D	in	1f	.	1f	-cta
=57	=57	=57	=57	=57	=57
1G	mu-	1d	-di-	0g	tu
1B	.	[1g	-cta	.	.
=58	=58	=58	=58	=58	=58
0A	-li-	1g]	.	1r	.
.	.	1f#i	.	1a	in
=59	=59	=59	=59	=59	=59
0G	-e-	1.g	tu	1b	mu-
.	.	.	.	[1dd	-li-
.	.	2f/	in	.	.
=60	=60	=60	=60	=60	=60
1F	.	1d	mu-	2dd\]	.
.	.	.	.	2cc\	.
1A	.	1f	.	[1cc	-e-
=61	=61	=61	=61	=61	=61
0G	.	1e	-li-	1cc]	.
.	.	1g	.	1b	.
=62	=62	=62	=62	=62	=62
1F	.	1a	-e-	1.cc	.
1C	.	1cc	.	.	.
.	.	.	.	4b\	.
.	.	.	.	4a/	.
=63	=63	=63	=63	=63	=63
1E	.	1b	.	1g	.
2D\	.	[1dd	.	1f	.
2d\	.	.	.	.	.
=64	=64	=64	=64	=64	=64
1B	.	2dd\]	.	1g	.
.	.	2cc\	.	.	.
1c	-ri-	[1cc	.	1e	-ri-
=65	=65	=65	=65	=65	=65
0G	-bus	1cc]	.	0d	-bus
.	.	1b	.	.	.
=66	=66	=66	=66	=66	=66
1.A	et	1.cc	.	1.c	et
4G\	.	4b\	.	2d/	.
4F\	.	4a/	.	.	.
=67	=67	=67	=67	=67	=67
2E\	be-	1.g	.	2e/	be-
2D\	-ne-	.	.	2f/	.
1C	-di-	.	.	2g/	.
.	.	4f/	.	2a/	.
.	.	4e/	.	.	.
=68	=68	=68	=68	=68	=68
1G	.	1d	-ri-	1b-	.
2A\	.	1c	-bus	2a/	.
[2E\	.	.	.	[2g/	-ne-
=69	=69	=69	=69	=69	=69
2E\]	.	1r	.	2g/]	.
2F\	.	.	.	2f/	.
2A\	.	1f	et	[1f	-di-
2B-i\	.	.	.	.	.
=70	=70	=70	=70	=70	=70
2.G\	.	0g	be-	1f]	.
4F\	.	.	.	.	.
1G	.	.	.	1e	-ctus
=71	=71	=71	=71	=71	=71
1F	-ctus	1a	-ne-	1f	fru-
1r	.	1cc	.	1a	-ctus
=72	=72	=72	=72	=72	=72
2G\	fru-	2b\	-di-	2b\	.
2A\	.	1a	.	1cc	ven-
1F	-ctus	.	.	.	.
.	.	4g/	.	4b\	.
.	.	4f/	.	4a/	.
=73	=73	=73	=73	=73	=73
1c	ven-	1e	-ctus	1g	-tris
[1A	.	[1f	fru-	[1a	tu-
=74	=74	=74	=74	=74	=74
1A]	.	1f]	.	1a]	.
1G	.	[1e	.	1b	.
=75	=75	=75	=75	=75	=75
0F	.	2e/]	.	1cc	.
.	.	2d/	.	.	.
.	.	2d/	.	1dd	.
.	.	4c/	.	.	.
.	.	4d/	.	.	.
=76	=76	=76	=76	=76	=76
1.E	.	[0e	-ctus	1.g	.
2F\	.	.	.	2a/	.
=77	=77	=77	=77	=77	=77
1G	.	0e_	.	1b	.
[1A	.	.	.	[1cc	.
=78	=78	=78	=78	=78	=78
2A\]	.	0e]	.	1cc]	.
2G\	.	.	.	.	.
2A\	.	.	.	2b\	.
2B\	.	.	.	2a/	.
=79	=79	=79	=79	=79	=79
0c	.	1r	.	1g	.
.	.	1e	ven-	1cc	.
=80	=80	=80	=80	=80	=80
1.d	.	0f	.	1a	.
.	.	.	.	[1dd	.
2c\	.	.	.	.	.
=81	=81	=81	=81	=81	=81
2B\	.	1d	.	2dd\]	.
2A\	.	.	.	2cc\	.
1G	-tris	[1g	.	2b\	.
.	.	.	.	2a/	.
=82	=82	=82	=82	=82	=82
1.c	.	2g/]	.	1g	.
.	.	2f/	.	.	.
.	.	2e/	.	[1cc	.
2B\	tu-	2d/	.	.	.
=83	=83	=83	=83	=83	=83
2A\	.	1c	-tris	2cc\]	.
2G\	.	.	.	2b\	.
2F\	.	2f/	tu-	2a/	.
2E\	.	2g/	.	2g/	.
=84	=84	=84	=84	=84	=84
2D\	.	2a/	.	1f	.
1d	.	2b\	.	.	.
.	.	1cc	.	[1a	.
2c\	.	.	.	.	.
=85	=85	=85	=85	=85	=85
1.d	.	1a	.	2a/]	.
.	.	.	.	2g/	.
.	.	[1dd	.	1f	.
2c\	.	.	.	.	.
=86	=86	=86	=86	=86	=86
0A	.	1dd]	.	0e	.
.	.	1cc#i	.	.	.
=87	=87	=87	=87	=87	=87
1.B-i	.	1.dd	.	[0d	-i.
2A\	.	2cc\	.	.	.
=88	=88	=88	=88	=88	=88
1F	.	1a	.	0d_	.
[1G	.	[1b-i	.	.	.
=89	=89	=89	=89	=89	=89
1G]	.	1b-]	.	0d_	.
1F	.	1a	.	.	.
=90	=90	=90	=90	=90	=90
1G	.	1b-i	.	0d]	.
2F\	.	2a/	.	.	.
2E\	.	2g/	.	.	.
=91	=91	=91	=91	=91	=91
[0Dl	-i.	[0f	.	[0dl	.
=92	=92	=92	=92	=92	=92
0D_	.	1f]	.	0d_	.
.	.	1g	.	.	.
=93	=93	=93	=93	=93	=93
0D]	.	0al	-i.	0d]	.
==	==	==	==	==	==
*-	*-	*-	*-	*-	*-
!!!RDF**kern: l=long note in original notation
!!!RDF**kern: i=editorial accidental
!!!ENC:	Victoria Chang/Jesse Rodin
!!!END:	2014/02/25/
!!!EED:	Jesse Rodin
!!!EEV:	2014/02/25/
!!!ONB:	Translated from MusicXML and edited on 2014/02/25/ by Craig Sapp
!!muse2ps: C^@{COM}^i2I150v105,105,130Q16
